!!!SOCIAL_FUNCTION:	corn dance songs
!!!PDT:	1957
!!!OTL: No_32_In_the_West_Is_the_Home_of_the_Raingods.krn
!!!LING_GROUP: Keresan
!!!LANG: Tone
!!!REG: Southwest
**kern	**kern
*staff2	*staff1
=1-	=1-
*clefF4	*clefF4
*k[b-e-a-d-]	*k[b-e-a-d-]
*M3/4	*M3/4
8GG/L	8F\L
8GG/J	8F\J
8GG/L	8F\L
8GG/J	8F\J
8GG/L	8F\
8GG/J	8r
=2!|:	=2!|:
8GG/L	8F\L
8GG/J	8f\J
8GG/L	8f\L
8GG/J	8f\J
8GG/L	8f\L
8GG/J	16g\L
.	16f\JJ
=3	=3
8GG/L	4e-\
8GG/J	.
8GG/L	8B-\L
8GG/J	8B-\J
8GG/L	8B-\L
8GG/J	8c\J
=4	=4
8GG/L	8A-\L
8GG/J	8A-\J
8GG/L	8F\L
8GG/J	8F\J
8GG/L	8F\L
8GG/J	8B-\J
=5	=5
2.r	8A-\L
.	8A-\J
.	8F\L
.	8F\J
.	8F\L
.	8A-\J
=6	=6
2.r	8A-\L
.	8A-\J
.	8F\L
.	8F\J
.	8r
.	8B-\
=7	=7
*M2/4	*M2/4
2r	8B-\L
.	8B-\J
.	8B-\L
.	8B-\J
=8	=8
*M3/4	*M3/4
2.r	8c\L
.	8c\J
.	16A-\LL
.	16F\J
.	8F\J
.	8F\L
.	8F\J
=9	=9
*M2/4	*M2/4
2r	8B-\L
.	8A-\J
.	8A-\L
.	16A-\L
.	16F\JJ
=10	=10
*M3/8	*M3/8
4.r	16A-\LL
.	16F\J
.	8F\
.	8B-\J
=11	=11
*M2/4	*M2/4
2r	8A-\L
.	8A-\J
.	8F\L
.	8F\J
=12	=12
2r	8F\L
.	8A-\J
.	8A-\L
.	8A-\J
=13	=13
2r	8F\L
.	8F\J
.	8r
.	8B-\
=14	=14
2r	8B-\L
.	8B-\J
.	8B-\L
.	8B-\J
=15	=15
*M3/4	*M3/4
2.r	8c\L
.	8A-\J
.	16A-\LL
.	16F\J
.	8F\J
.	8F\L
.	8F\J
=16	=16
2.r	8B-\L
.	8A-\J
.	16A-\LL
.	16F\J
.	8F\J
.	8F\L
.	8F\J
=17	=17
2.r	8B-\L
.	8A-\J
.	16A-\LL
.	16F\J
.	8F\J
.	8F\
.	8r
=18	=18
2.r	8B-\L
.	8A-\J
.	8A-\L
.	8F\J
.	8F\L
.	8F\J
=19	=19
*M2/4	*M2/4
2r	8A-\L
.	8A-\J
.	8A-\L
.	8F\J
=20	=20
2r	8F\L
.	8f\J
.	8f\L
.	8f\J
=21	=21
2r	8f\L
.	16g\L
.	16f\JJ
.	8e-\L
.	8e-\J
=22	=22
*M3/4	*M3/4
2.r	8B-\L
.	8B-\J
.	8B-\L
.	16c\L
.	16B-\JJ
.	8A-\L
.	8A-\J
=23	=23
2.r	8F\L
.	8F\J
.	8F\L
.	16A-\L
.	16F\JJ
.	8A-\L
.	8A-\J
=24	=24
*M2/4	*M2/4
2r	8F\L
.	8F\J
.	8r
.	16A-\LL
.	16F\JJ
=25	=25
*M7/8	*M7/8
2..r	8B-\L
.	8B-\
.	8B-\
.	8B-\
.	16c\L
.	16B-\J
.	8A-\
.	8A-\J
=26	=26
*M3/4	*M3/4
2.r	8F\L
.	8A-\J
.	8A-\L
.	8A-\J
.	8B-\L
.	8A-\J
=27	=27
*M5/8	*M5/8
3...r	8F\L
.	8F\
.	8F\
.	8F\J
.	8r
=28	=28
*M3/4	*M3/4
2.r	16A-\LL
.	16F\J
.	8F\J
.	8F\L
.	8A-\J
.	8F\L
.	8F\J
==:|!	==:|!
*-	*-
